X: 36525
T: Session On The Ship, The
R: jig
M: 6/8
K: Gmajor
DED ~G3|dBG dBG|DED ~F3|dAF dAF|
DED ~G3|dBG d3|dBG dBG|AGE ~G3:|
BGE GEG|BGE GEG|AFD AFD|AFD FGA|
BGE GEG|BGE GEG|GAB dBG|AGE ~G3|

